X: 1
T: Rendez-Vous \`a Vichy    [Bb]
C: Pascaline Latour
R: jig
Z: 2019 John Chambers <jc:trillian.mit.edu>
S: Print image from Robert Owen
M: 6/8
L: 1/8
K: Bb
F |\
"Bb"B2B Bcd | "(Gm)"d2c BBA | "Eb"GEG GFG | "F"A2B AGF |\
"Bb"d2d def | "Gm"fge dec | "Eb"Bcd "(F)"cBA | "Cm"GAB "F7"Ac :|
|: f |\
"Bb"d2d dcB | "F"c2F F2f | "Gm"d2d dcB | "F"A2B c2d |\
"Cm"e2c "F7"efg | "Bb"fdf "Gm"B2d | "Cm7"ece "F7"fFf | "Bb"Bdc B2 :|
